Papirus/22x22/apps/xcom-2.svg

<svg width="22" height="22" version="1.1" xmlns="http://www.w3.org/2000/svg">
 <path d="m6.0000009 1.4996343c-0.43057-2.25e-4 -0.812954 0.2751545-0.949219 0.6835938l-3 8.9999999c-0.11307 0.339284-0.03637 0.713122 0.201172 0.980468l8.0000001 9c0.397902 0.448405 1.098192 0.448405 1.496094 0l8-9c0.237538-0.267346 0.314242-0.641184 0.201172-0.980468l-3-8.9999998c-0.136264-0.4084395-0.518649-0.683819-0.949219-0.6835939z" style="opacity:.2"/>
 <path d="m6.0000009 1c-0.43057-2.2512e-4 -0.812954 0.2751545-0.949219 0.6835938l-3 9.0000002c-0.11307 0.339284-0.03637 0.713122 0.201172 0.980468l8.0000001 9c0.397902 0.448405 1.098192 0.448405 1.496094 0l8-9c0.237538-0.267346 0.314242-0.641184 0.201172-0.980468l-3-9.0000002c-0.136264-0.4084394-0.518649-0.68381901-0.949219-0.6835938z" style="fill:#02c0f3"/>
 <path d="m11 9a11 6.5 0 0 0-8.7890625 2.603516c0.01488 0.01946 0.024588 0.04206 0.041016 0.06055l7.9999995 9c0.397902 0.448406 1.098192 0.448406 1.496094 0l8-9c0.01679-0.0189 0.02584-0.04259 0.04102-0.0625a11 6.5 0 0 0-8.789067-2.601566z" style="fill:#2dd1fd"/>
 <path d="m6 1c-0.43057-2.2508e-4 -0.8129537 0.2751545-0.9492188 0.6835938l-3 9.0000002c-0.062621 0.187903-0.062549 0.385171-0.013672 0.570312 0.00596-0.02343 0.00596-0.04716 0.013672-0.07031l3-9.0000002c0.1362651-0.4084414 0.5186488-0.6838208 0.9492188-0.6835958h10c0.43057-2.251e-4 0.812955 0.2751542 0.949219 0.6835938l3 9.0000002c0.0077 0.02315 0.0077 0.04688 0.01367 0.07031 0.04888-0.185141 0.04895-0.382409-0.01367-0.570312l-3-9.0000002c-0.136264-0.4084375-0.518649-0.68381697-0.949219-0.6835918z" style="fill:#ffffff;opacity:.2"/>
 <path d="m11 3.4999998s-0.91125-0.0175-1.860776 0.4443711c-0.949513 0.4614959-2.139224 1.8890184-2.139224 3.5556289h3c0-2 1.512712-2 1.512712-2s1.487288 0 1.487288 1-0.44297 1.5998329-1 2c-0.438273 0.3148505-0.985213 0.5303083-1.62807 0.9990542-0.642858 0.468746-1.379945 0.987991-2.001395 1.743235-0.62145 0.755118-1.370535 1.792484-1.370535 3.007724v1.249987h8v-2h-5c0.04024-0.055 0.07348-0.138999 0.119768-0.195249 0.342835-0.416746 1.00286-1.09602 1.79403-1.803714 0.59299-0.530425 1.379944-0.987992 2.001394-1.743235 0.62145-0.7551187 1.084822-1.7924846 1.084822-3.0077239 0-1.6666105-1.050501-2.4374316-2.000014-2.8989275-0.94954-0.461621-2-0.3511508-2-0.3511508z" style="fill-rule:evenodd;opacity:.1"/>
 <path d="m11 3s-0.91125-0.0175-1.860776 0.4443711c-0.949513 0.4614959-2.139224 1.8890184-2.139224 3.5556289h3c0-2 1.512712-2 1.512712-2s1.487288 0 1.487288 1-0.44297 1.5998329-1 2c-0.438273 0.3148505-0.985213 0.5303083-1.62807 0.9990542-0.642858 0.4687459-1.379945 0.9879913-2.001395 1.7432348-0.62145 0.755118-1.370535 1.792484-1.370535 3.007724v1.249987h8v-2h-5c0.04024-0.055 0.07348-0.138999 0.119768-0.195249 0.342835-0.416746 1.00286-1.09602 1.79403-1.803714 0.59299-0.530425 1.379944-0.987992 2.001394-1.7432351 0.62145-0.7551184 1.084822-1.7924843 1.084822-3.0077236 0-1.6666105-1.050501-2.4374316-2.000014-2.8989275-0.94954-0.461621-2-0.3511508-2-0.3511508z" style="fill-rule:evenodd;fill:#333333"/>
</svg>

<svg xmlns="http://www.w3.org/2000/svg" width="22" height="22" version="1.1">
 <path style="opacity:0.2" d="M 6.0005,1.4996 C 5.5699,1.4994 5.1875,1.7748 5.0513,2.1832 L 2.0513,11.183 C 1.9382,11.523 2.0149,11.896 2.2525,12.164 L 10.253,21.164 C 10.651,21.612 11.351,21.612 11.749,21.164 L 19.748,12.164 C 19.986,11.896 20.062,11.523 19.949,11.183 L 16.949,2.1832 C 16.813,1.7748 16.431,1.4994 16,1.4996 Z"/>
 <path style="fill:#02c0f3" d="M 6.0005,1 C 5.5699,0.9998 5.1875,1.2752 5.0513,1.6836 L 2.0513,10.684 C 1.9382,11.023 2.0149,11.397 2.2525,11.664 L 10.253,20.664 C 10.651,21.112 11.351,21.112 11.749,20.664 L 19.748,11.664 C 19.986,11.397 20.062,11.023 19.949,10.684 L 16.949,1.6836 C 16.813,1.2752 16.431,0.9998 16,1 Z"/>
 <path style="fill:#2dd1fd" d="M 11.001,9 A 11,6.5 0 0 0 2.2114,11.604 C 2.2263,11.623 2.236,11.646 2.2525,11.664 L 10.253,20.664 C 10.651,21.112 11.351,21.112 11.749,20.664 L 19.748,11.664 C 19.765,11.645 19.774,11.621 19.789,11.602 A 11,6.5 0 0 0 11.001,9 Z"/>
 <path style="opacity:0.2;fill:#ffffff" d="M 6.0005,1 C 5.5699,0.9998 5.1875,1.2752 5.0513,1.6836 L 2.0513,10.684 C 1.9887,10.871 1.9887,11.069 2.0376,11.254 2.0436,11.23 2.0436,11.207 2.0513,11.184 L 5.0513,2.1836 C 5.1875,1.7752 5.5699,1.4998 6.0005,1.5 H 16 C 16.431,1.4998 16.813,1.7752 16.949,2.1836 L 19.949,11.184 C 19.957,11.207 19.957,11.23 19.963,11.254 20.012,11.069 20.012,10.871 19.949,10.684 L 16.949,1.6836 C 16.813,1.2752 16.431,0.9998 16,1 Z"/>
 <path style="opacity:0.1" d="M 11.001,3.5 C 11.001,3.5 10.09,3.4825 9.14,3.9444 8.1902,4.4059 7.0005,5.8334 7.0005,7.5 H 10.001 C 10.001,5.5 11.514,5.5 11.514,5.5 11.514,5.5 13.001,5.5 13.001,6.5 13.001,7.5 12.558,8.1 12.001,8.5 11.563,8.815 11.016,9.03 10.373,9.499 9.73,9.968 8.9925,10.487 8.371,11.242 7.7496,11.997 7.0005,13.035 7.0005,14.25 V 15.5 H 15 V 13.5 H 10.001 C 10.041,13.445 10.074,13.361 10.121,13.305 10.464,12.888 11.124,12.209 11.915,11.501 12.508,10.971 13.295,10.513 13.916,9.758 14.538,9.003 15,7.9653 15,6.7501 15,5.0835 13.951,4.3126 13.001,3.8512 12.051,3.3895 11.001,3.5 11.001,3.5 Z"/>
 <path style="fill:#333333" d="M 11.001,3 C 11.001,3 10.09,2.9825 9.14,3.4444 8.1902,3.9059 7.0005,5.3334 7.0005,7 H 10.001 C 10.001,5 11.514,5 11.514,5 11.514,5 13.001,5 13.001,6 13.001,7 12.558,7.5998 12.001,8 11.563,8.315 11.016,8.53 10.373,8.999 9.73,9.468 8.9925,9.987 8.371,10.742 7.7496,11.497 7.0005,12.535 7.0005,13.75 V 15 H 15 V 13 H 10.001 C 10.041,12.945 10.074,12.861 10.121,12.805 10.464,12.388 11.124,11.709 11.915,11.001 12.508,10.471 13.295,10.013 13.916,9.258 14.538,8.503 15,7.4653 15,6.2501 15,4.5835 13.951,3.8126 13.001,3.3512 12.051,2.8895 11.001,3 11.001,3 Z"/>
</svg>
